X:1
T:Sei foco qual risalda
T:Sei foco qual risalda
T:Jhan Gero
T:Sourrce : Trium vocum cantiones---Nürnberg---J.Petreius---1541. Editor : André Vierendeels (24/09/16).
T:Notes : Original clefs : C2, C4, F4 Editorial accidentals abobe the staff Original note values have been halved
T:©
T:©
T:©
T:©
T:©
C:Jhan Gero
Z:©
%%score [ 1 2 3 ]
L:1/8
Q:1/4=120
M:2/2
K:C
V:1 treble nm="Alto" snm="A"
V:2 treble-8 nm="Tenor" snm="T"
V:3 bass nm="Bass" snm="B"
V:1
 z8 | z2 D2 A2 A2 | G2 F2 E3 F | G2 A4 G2 | A4 z2 D2 | F2 E2 A2 A2 | G4 F2 A2- | A2 G4 F2 | %8
w: |Sei fo- co|qual ri- sal- da|li mei lom-|bi, co-|ces- se tant' il|vo- stro lom-|* bi- li-|
 G4 A4- | A2 G2 F4 | E2 A2 G4 | F2 F2 E4 | C4 D4 | E2 E2 E2 E2 | F6 E2 | D2 C2 B,4 | A,8 | %17
w: co, lom-|* be- li-|co, piu non|ha- vre'in- tri-|co, tan-|to so- vent' in|do- man-|dar- v'il fon-|te,|
 z2 E2 E2 E2 | F2 E2 A3 G | F2 A3 G F2 | E2 D2 F4 | E2 D4 C2 | D2 F2 E2 F2 | G2 A2 F4 | E6 E2 | %25
w: per po- ter-|mi sfo- car, per|po- ter- mi sfo-|car quant' ho-|gia fat- *|to, ma mi con|ce- de- re-|sti il|
 F2 D2 E2 F2 | G2 G2 A2 GF | G2 A2 BAGF | E2 A4 G2 | A4 z2 A2 | A2 A2 A2 A2 | G4 E2 F2- | %32
w: pas- so per an-|dar a mez- * *|* zo'il mon- * * *||te. do-|ve'l ve- ver- co|font' e per|
 F2 E2 D4 | ^C4 E4 | E2 E2 E2 E2 | E2 E2 E2 F2- | FE E4 D2 | E6 E2 | F2 F2 D2 G2- | GFED C2 F2- | %40
w: _ un trat-|to, las-|sar m'in- fri- gi-|dar nel suo li-|* * quo- *|re, tan-|to pren- des- si'l|_ _ _ _ _ na-|
 FE D2 G3 F | ED C4 F2 | E2 D4 C2 | D4 E4 | F2 F2 D2 G2- | GFED C2 F2- | FE D2 G3 F | ED C4 F2 | %48
w: * * * tu- *|* * ral vi-|* go- *|re, tan-|to pren- des- si'l|_ _ _ _ _ na-|* * * tu- *|* * ral vi-|
 E2 D4 C2 | D8 |] %50
w: * go- *|re.|
V:2
 A4 d2 d2 | c2 B2 A3 B | c2 d4 c2 | dcBA B2 c2- | cB A4 G2 | A4 z2 A2 | c2 B2 d2 d2 | c2 e4 c2 | %8
w: Sei fo- co|qual ri- sal- da|li mei _|_ _ _ _ lom- *||bi, co-|ces' se tant' il|vo- stro lom-|
 d2 e2 c2 f2- | fe e4 d2 | e2 c2 e4 | d2 d2 B4 | A4 z2 A2 | c2 c2 B2 c2 | d6 c2 |"^#" B2 A4 G2 | %16
w: be- * * *|* * * li-|co, piu non|ha- vre'in- tri-|co, tan-|to so- vent' in|do- man-|dar- v'il fon-|
 A2 E2 E2 E2 | F2 E2 A3 G | F2 A3 GFE | D2 E2 FGAF | G2 F4 D2 | GFED E4 | D2 d2 c2 c2 | B2 A2 d4 | %24
w: te, per po- ter|mi sfo- car _|_ _ _ _ _|* quan- to _ _ _|_ ho- gia|fat- * * * *|to, ma mi con-|ce- de- re-|
 c2 A2 B2 G2 | A2 B2 c2 d2 | e3 d c2 d2 | B2 A2 d4 | c2 A2 B4 | A4 c4 | c2 c2 f2 f2 | d4 c2 d2- | %32
w: sti il pas- so|per an- dar a|mez- * * zo'il|mon- te mez-|zo il mon-|te, do-|ve'l ve- ner- co|font' e par|
 d2 e2 f4 |"^-natural" e4 c4 | c2 B2 c2 c2 | B4 c4 | B2 G2 A4 | B2 B2 c2 c2 | A2 d3 cBA | %39
w: _ un trat-|to, la-|sar m'in- fri- gi-|dar nel|suo li- quo-|re, tan- to pren-|des- s'il na- * *|
 G2 c3 B A2 | d3 c BA G2- | G2 A3 G F2 | G2 F2 E4 | D2 A2 B2 c2 | A2 d3 cBA | G2 c3 B A2 | %46
w: * tu- * *|* * * * ral|_ vi- * *|* * go-|re, tan- to pren-|des- s'il na- * *|* tu- * *|
 d3 c BA G2- | G2 A4 GF | GFED E4 | D8 |] %50
w: * * * * ral|_ vi- * *|* * * * go-|re.|
V:3
 z8 | z8 | z2 D,2 A,2 A,2 | G,2 F,2 E,3 D, | C,2 D,2 B,,4 | A,,8 | E,4 z2 D,2 | F,2 E,2 A,2 A,2 | %8
w: ||Sei fo- co|qual ri- sal- da|li mei lom-||bi, con-|ces- se tant' il|
 G,2 E,2 F,4- | F,2 G,2 A,2 B,2 | C2 F,2 C,4 | D,2 D,2 E,4 | F,4 D,4 | A,2 A,2 G,2 A,2 | D,6 E,2 | %15
w: vo- stro lom-|* bi- * li-|co, piu non|ha- vre'in- tri-|co, tan-|to so- vent' in|do- man|
 G,2 A,2 E,4 | A,,8- | A,,8 | z2 A,,2 A,,2 A,,2 | _B,,2 A,,2 D,2 D,2 | C,2 D,3 C,B,,A,, | %21
w: dar- v'il fon-|te,|_|per po- ter-|mi sfo- car quant'|ho- gia fat- * *|
 G,,2 B,,2 A,,4 | D,2 D,2 A,2 A,2 | G,2 F,2 D,4 |"^#" A,3 G,/F,/ E,4 | D,4 z4 | E,4 F,2 D,2 | %27
w: * * to,|ma mi con- ce|de- re- *||sti,|il pas- so|
 E,2 F,2 G,2 G,2 | A,2 F,2 E,4 | A,4 F,4 | F,2 F,2 F,2 F,2 | G,4 A,2 D,2- | D,2 C,2 D,4 | A,4 A,4 | %34
w: per nan- dar a|mez- zo'il mon-|te, do-|ve'l ve- ner- co|font' e per|_ un trat|to, las-|
 A,2 G,2 A,2 A,2 | E,4 A,4 | G,2 E,2 F,4 | E,6 C,2 | D,4 G,4 | E,4 F,2 F,2 | D,2 G,3 F,E,D, | %41
w: sar m'in- fri- gi-|dar nel|suo li- quo-|re, li-|quo- re,|tan- to pren-|des- s'il _ _ _|
 C,2 F,3 E, D,2 | C,2 D,2 A,,4 | B,,2 D,4 C,2 |"^#" D,4 G,4 | E,4 F,2 F,2 | D,2 G,3 F,E,D, | %47
w: _ na- tu- ran|vo- go- *||re, tan-|to pren- des-|s'il _ _ _ _|
 C,2 F,3 E, D,2 | C,2 D,2 A,,4 | D,8 |] %50
w: _ na- tu- ral|vi- go- *|re.|

